icons/fabric.svg

<!--
  - The MIT License (MIT)
  -
  - Copyright (c) 2015-2024 Elior "Mallowigi" Boukhobza
  -
  - Permission is hereby granted, free of charge, to any person obtaining a copy
  - of this software and associated documentation files (the "Software"), to deal
  - in the Software without restriction, including without limitation the rights
  - to use, copy, modify, merge, publish, distribute, sublicense, and/or sell
  - copies of the Software, and to permit persons to whom the Software is
  - furnished to do so, subject to the following conditions:
  -
  - The above copyright notice and this permission notice shall be included in all
  - copies or substantial portions of the Software.
  -
  - THE SOFTWARE IS PROVIDED "AS IS", WITHOUT WARRANTY OF ANY KIND, EXPRESS OR
  - IMPLIED, INCLUDING BUT NOT LIMITED TO THE WARRANTIES OF MERCHANTABILITY,
  - FITNESS FOR A PARTICULAR PURPOSE AND NONINFRINGEMENT. IN NO EVENT SHALL THE
  - AUTHORS OR COPYRIGHT HOLDERS BE LIABLE FOR ANY CLAIM, DAMAGES OR OTHER
  - LIABILITY, WHETHER IN AN ACTION OF CONTRACT, TORT OR OTHERWISE, ARISING FROM,
  - OUT OF OR IN CONNECTION WITH THE SOFTWARE OR THE USE OR OTHER DEALINGS IN THE
  - SOFTWARE.
  -
  -->

<svg version="1.1" xmlns="http://www.w3.org/2000/svg" viewBox="0 0 476 512" width="16px" height="16px">
  <path fill="#9a927e" fill-rule="evenodd" data-iconColor="Fabric"
        d="M72,292.4395142H36v-36h36V292.4395142z M108.9295654,219.5098877H72v36.9296265h36.9295654V219.5098877z M145.8591919,182.5803223h-36.9296265v36.9295654h36.9296265V182.5803223z M182.7887573,145.6507568h-36.9295654v36.9295654h36.9295654V145.6507568z M218.7887573,109.3932877h-36v36.2574692h36V109.3932877z M255.9234009,36.5652466h-37.1346436v72.8280411h37.1346436V36.5652466z M293.192688,0h-37.2692871v36h37.2692871V0z M293.192688,72h36.0442505V36.7142944H293.192688V72z M329.2369385,109.3932877h36.4812622V72.4489136h-36.4812622V109.3932877z M365.7182007,146.0079041h37.1425171v-36.6146164h-37.1425171V146.0079041z M402.8607178,181.6507568h36.29953v-35.6428528h-36.29953V181.6507568z M476.4036255,182.0996094h-37.2433777v73.7908936h37.2433777V182.0996094z M255.9234009,109.3932877v36.7222519h36.6399536v-36.7222519H255.9234009z M292.5633545,146.1155396v36.9295654h36.673584v-36.9295654H292.5633545z M365.7182007,219.045105v-36h-36.4812622v36H365.7182007z M292.9307861,365.7086792h36.3061523v-36h-36.3061523V365.7086792z M183.1798096,475.8172607h-36.9428711v35.8370972h73.9933472v-35.8370972h35.8534241v-36.7028809l0,0V402.411499h36.8470764v-36.7028198h-36.8470764v36.7028198h-36.8109436l-0.1081543,36.7028809H183.347229v36.7028809 M109.677124,475.8172607h36.5598145v-36.7028809H109.677124V475.8172607z M73.210083,402.411499v36.7028809h36.467041V402.411499H73.210083z M36,365.7086792v36.7028198h37.210083v-36.7028198H36z M36,292.4395142H0v73.269104h36V292.4395142z M402.8607178,219.4187012h-37.1425171v73.494873h-36.4812622v36h36.4812622V293.045105h73.4420471v-37h-36.29953V219.4187012z"/>
</svg>

<svg xmlns="http://www.w3.org/2000/svg" viewBox="0 0 476 512"><path fill="#9a927e" fill-rule="evenodd" d="M72 292.44H36v-36h36zm36.93-72.93H72v36.93h36.93zm36.93-36.93h-36.93v36.93h36.93zm36.929-36.93h-36.93v36.93h36.93zm36-36.257h-36v36.258h36zm37.134-72.828H218.79v72.828h37.134zM293.193 0h-37.27v36h37.27zm0 72h36.044V36.714h-36.044zm36.044 37.393h36.481V72.45h-36.481zm36.481 36.615h37.143v-36.615h-37.143zm37.143 35.643h36.3v-35.643h-36.3zm73.543.449H439.16v73.79h37.244zm-220.48-72.707v36.723h36.64v-36.723zm36.64 36.723v36.93h36.673v-36.93zm73.154 72.93v-36h-36.481v36zm-72.787 146.663h36.306v-36H292.93zM183.18 475.817h-36.943v35.837h73.993v-35.837h35.854v-73.406h36.847V365.71h-36.847v36.702h-36.811l-.108 36.703h-35.818v36.703m-73.67 0h36.56v-36.703h-36.56zM73.21 402.411v36.703h36.467v-36.703zM36 365.71v36.702h37.21V365.71zm0-73.27H0v73.27h36zm366.86-73.02h-37.142v73.495h-36.481v36h36.481v-35.869h73.442v-37h-36.3z" data-iconColor="Fabric"/></svg>
